X: 1
T: String Quartet in B\b Major opus 76 no 4 mvt 2
C: Franz Joseph Haydn
%%abc-version 2.0
%%abcx-abcm2ps-target-version 5.9.1 (29 Sep 2008)
%%abc-creator hum2abc beta
%%abcx-conversion-date 2021/02/14 14:38:34
%%abc-copyright Copyright (c) 1994, 2000 Center for Computer Assisted Research in the Humanities
%%abc-edited-by Frances Bennion
%%abcx-initial-encoding-date 1997/04/15
%%gracespace 0 6 6
%%humdrum-veritas 1717784402
%%humdrum-veritas-data 636071546
%%linebreak <none>
%%barnumbers 0
L: 1/16
M: 3/4
N: Derived from op76n4-02.krn
Q: "Adagio"
%%staves [1 2 3 4]
V: 1
V: 2
V: 3 clef=alto
V: 4 clef=bass
K: Eb
[V:1]E4 D4 E4 [I:setbarnb2]|
[V:2]B,12 |
[V:3]G,4 A,4 G,4 |
[V:4]E,4 F,4 E,4 |
[V:1]F4 G8 |
[V:2]D4 E8 |
[V:3]B,12 |
[V:4]B,,4 E,,8 |
[V:1]F4 =E4 F4 |
[V:2]C12 |
[V:3]A,4 B,4 A,4 |
[V:4]F,4 G,4 F,4 |
[V:1]G4 A8 |
[V:2]=E4 F8 |
[V:3]C12 |
[V:4]C,4 F,,8 |
[V:1]c4 =B4 c4 |
[V:2]A4 G4 A4 |
[V:3]z12 |
[V:4]z12 |
[V:1]G4 (3:2:2A4-A/B/c/B/ A/G/F/|
[V:2]=E4 F4 C4 |
[V:3]C4 A,4 F,4 |
[V:4]z12 |
[V:1]E4 >D4 A2D2 |
[V:2]B,4 A,8 |
[V:3]G,4 F,8 |
[V:4]B,,12 |
[V:1]E2G2 B2d2 e2g2 |
[V:2]G,4 z8 |
[V:3]G,4 z8 |
[V:4]E,,4 z8 |
[V:1]b12- |
[V:2]e4 d4 e4 |
[V:3]G4 F4 E4 |
[V:4]z12 |
[V:1]b4 >=b4 c'2_b2 |
[V:2]f4 g8 |
[V:3]D4 E4 =E4 |
[V:4]z12 |
[V:1]a4 g4 f2f'2 |
[V:2]f4 =e4 f4 |
[V:3]F2C2 B,2C2 A,2=A,2 |
[V:4]F,4 G,4 A,2=A,2 |
[V:1]e'4 d'8 |
[V:2]g4 a8 |
[V:3]B,4 F8 |
[V:4]B,4 =B,8 |
[V:1]e'4 _D7 C/D/ |
[V:2]g4 B,8 |
[V:3]E4 E,8- |
[V:4]C4 G,,8 |
[V:1]C2c2 >=B2dc fecA |
[V:2]C4 z8 |
[V:3]E,4 z8 |
[V:4]A,,4 A,4 z4 |
[V:1]GA=AB4 <<A,4 G,/A,/ |
[V:2]E4 D8 |
[V:3]G,4 F,8 |
[V:4]B,,12 |
[V:1]G,4 z8 |
[V:2]E2G2 G2G2 G2G2 |
[V:3]E,2E2 E2E2 E2E2 |
[V:4]E,,4 z8 |
[V:1]c4 =B4 c4 |
[V:2]G2G2 G2G2 G2G2 |
[V:3]E2E2 E2E2 E2E2 |
[V:4]z12 |
[V:1]d4 e6 d2 |
[V:2]=B4 c4 B4 |
[V:3]F4 E8- |
[V:4]G,4 ^F,4 G,4 |
[V:1]c4 f6 e2 |
[V:2]c4 [c8F8] |
[V:3]E2D2 C4 F4- |
[V:4]A,4 =A,8 |
[V:1]d4 z8 |
[V:2][F2d2]d2 d2d2 d2d2 |
[V:3]F2B2 B2B2 B2B2 |
[V:4]B,4 z8 |
[V:1]f4 =e4 f4 |
[V:2]d2d2 d2d2 d2d2 |
[V:3]B2B2 B2B2 B2B2 |
[V:4]z12 |
[V:1]^f4 g6 =f2 |
[V:2]d2d2 d2d2 d2d2 |
[V:3]B2B2 B2B2 B2B2 |
[V:4]z12 |
[V:1](3=egb(3_d'bg (3ef=a(3c'af z4 |
[V:2]_d4 c8 |
[V:3]B4 =A8 |
[V:4]z8 (3=E,F,=A,(3CA,F, |
[V:1](3deg(3bge (3^cdf(3=afd z4 |
[V:2]B4 =A8 |
[V:3]G4 F8 |
[V:4]z8 (3^C,D,F,(3=A,F,D, |
[V:1](3=Bce(3gec (3=A_Bd(3fdB b4- |
[V:2]G4 F8 |
[V:3]E4 D8 |
[V:4]z8 (3D,,F,,=A,,(3B,,F,,D,, |
[V:1](3b^fg(3de=B (3c^FG(3DE=B, (3CEG(3Bcg |
[V:2]G4 z8 |
[V:3]E4 z8 |
[V:4]E,,4 z8 |
[V:1](3=EF^F(3GA=A (3B=F^F(3G_A=A (3Bdf(3=abd' |
[V:2]D12 |
[V:3]B,12 |
[V:4]F,12- |
[V:1]f'4 >f'4 f'2f'2 |
[V:2][E4C4] >[E4C4] [E2C2][C2E2] |
[V:3]=A,4 >A,4 A,2A,2 |
[V:4]F,4 >F,4 F,2F,2 |
[V:1]f'12 |
[V:2][E12C12] |
[V:3]=A,12 |
[V:4]B,,12- |
[V:1]B4 z8 |
[V:2][D4B,4] z8 |
[V:3]B,4 z8 |
[V:4]B,,4 >B,,4 B,,2B,,2 |
[V:1]z8 B4 |
[V:2]B,4 =A,4 B,4 |
[V:3]D,4 C,4 D,4 |
[V:4]B,,2B,,2 B,,2B,,2 B,,2B,,2 |
[V:1]=A4 B4 c4 |
[V:2]C4 D4 E4 |
[V:3]E,4 F,4 _G,4 |
[V:4]B,,2B,,2 B,,2B,,2 B,,2B,,2 |
[V:1](3dfa(3c'ba (3gfe(3dcB (3AGA(3cAF |
[V:2][D12A,12] |
[V:3]F,12- |
[V:4]B,,12- |
[V:1]E4 D2z2 (3=A,B,=B,(3C_D=D |
[V:2]A,4 z8 |
[V:3]F,4 z8 |
[V:4]B,,4 z8 |
[V:1]E4 D4 E4 |
[V:2]B,12- |
[V:3]E,4 A,4 _G,4 |
[V:4]_G,,4 F,,4 E,,4 |
[V:1]F4 _G8 |
[V:2]B,12 |
[V:3]D,4 E,8 |
[V:4]B,,4 E,,8 |
[V:1]A4 G4 A4 |
[V:2]E12- |
[V:3]E4 _D4 _C4 |
[V:4]_C,4 B,,4 A,,4 |
[V:1]B4 _c8 |
[V:2]E12 |
[V:3]G,4 A,8 |
[V:4]E,,4 A,,8 |
[V:1]_c4 B4 c4 |
[V:2]A4 G4 A4 |
[V:3]z12 |
[V:4]z12 |
[V:1]F4 (3:2:2_G4-G/_c/B/A/ G/F/E/|
[V:2]D4 E8 |
[V:3]_C4 B,4 _G,4 |
[V:4]A,4 _G,4 E,4 |
[V:1]D2>F2 A4 _G3F/G/ |
[V:2]A,8 =A,4 |
[V:3]F,4 D,4 E,4 |
[V:4]B,,12- |
[V:1]F4 z8 |
[V:2]B,4 z8 |
[V:3]D,2B2 B2B2 B2B2 |
[V:4]B,,4 z8 |
[V:1]z12 |
[V:2]c2c2 c2c2 c2c2 |
[V:3]B2B2 B2B2 B2B2 |
[V:4]E,,4 D,,4 E,,4 |
[V:1](3c_dc(3bg=e (3cae(3f=Bc (3GA=E(3FAc |
[V:2][G2c2][c2G2] [c2A2][c2A2] [c2A2][c2A2] |
[V:3]B2B2 A2A2 F,2F,2 |
[V:4]=E,,4 (3F,,4>>A,,4 C,(3A,,F,,_E,, |
[V:1](3BcB(3afd (3Bgd(3e=AB (3^FGD(3EGB |
[V:2][B2F2][B2F2] [B2G2][G2B2] G2G2 |
[V:3]A2A2 G2G2 E,2E2 |
[V:4]D,,4 (3E,,4>>G,,4 B,,(3G,,E,,D,, |
[V:1]A8 G4 |
[V:2]G4 F4 E4 |
[V:3]E4 B,8 |
[V:4](3C,,E,,G,,(3A,,B,,C, (3D,,F,,A,,(3B,,C,D, (3E,,G,,B,,(3E,F,G, |
[V:1](3FG=E(3FGA (3=Bc=e(3fga (3=bc'_b(3agf |
[V:2]F12- |
[V:3]C12 |
[V:4]A,12- |
[V:1]e4 (3def(3gab (3c'd'e'(3f'g'a' |
[V:2]F12 |
[V:3]B,12- |
[V:4]A,12 |
[V:1]b'8 =b'4 |
[V:2]E8 _D4 |
[V:3]B,8 E4- |
[V:4]G,12 |
[V:1]c''4 z8 |
[V:2]C4 z8 |
[V:3]E4 z8 |
[V:4]A,4 z8 |
[V:1]A,8 G,A,z2 |
[V:2]D8 z4 |
[V:3]F,8 z4 |
[V:4]B,,8 z4 |
[V:1]e4 d4 e4 |
[V:2]z12 |
[V:3]z4 A4 G4 |
[V:4]E,,4 z8 |
[V:1]f4 g4 z4 |
[V:2]e4 d4 e4 |
[V:3]A4 B4 c4 |
[V:4]z12 |
[V:1]f4 =e4 f4 |
[V:2]f4 g4 z4 |
[V:3]z4 _D4 C4 |
[V:4]z4 B,4 A,4 |
[V:1]g4 a4 z4 |
[V:2]z4 _G4 F4 |
[V:3]_D4 E4 F4- |
[V:4]B,4 C4 _D4- |
[V:1]=a4 b8 |
[V:2]z4 A4 G4 |
[V:3]F8 G4- |
[V:4]D4 D4 E4- |
[V:1]=b4 c'6 _b2 |
[V:2]z4 B2>A2 G2c2 |
[V:3]G4 G8 |
[V:4]E4 =E4 E4 |
[V:1]=a8 b4 |
[V:2](3cef(3=afe (3cef(3afe (3Bdf(3bfd |
[V:3]F12 |
[V:4]E8 D4 |
[V:1]g8 a4 |
[V:2](3B_de(3ged (3Bde(3ged (3Ace(3aec |
[V:3]E12 |
[V:4]_D8 C4 |
[V:1]a8 g4 |
[V:2](3afd(3BAF (3DFA(3cAF (3EG=B(3cde |
[V:3]D8 E4 |
[V:4]B,8 C4 |
[V:1](3f=bc'(3ga=e (3f=Bc(3GA=E (3Fc_B(3AGF |
[V:2]c4 z8 |
[V:3]F4 z8 |
[V:4]A,4 z8 |
[V:1](3EB=A(3_AGF (3Eed(3cBA (3GBd(3egb |
[V:2]E12 |
[V:3]G,12 |
[V:4]B,,12- |
[V:1]b4 >b4 b2b2 |
[V:2][A,4D4] >[A,4D4] [A,2D2][D2A,2] |
[V:3]F,4 >F,4 F,2F,2 |
[V:4]B,,4 >B,,4 B,,2B,,2 |
[V:1]b12 |
[V:2][A,12D12] |
[V:3]F,12 |
[V:4]B,,12 |
[V:1]E4 z2e2 e2e2 |
[V:2][E4G,4] z2G2 G2G2 |
[V:3]E,4 z2_D2 D2D2 |
[V:4][C,4C,,4] z2B,2 B,2B,2 |
[V:1]e12 |
[V:2]G12 |
[V:3]_D12 |
[V:4]B,12 |
[V:1]A,4 z2_c2 c2c2 |
[V:2]A4 z2A2 A2A2 |
[V:3]_C4 z8 |
[V:4]_C4 z8 |
[V:1]B4 z4 D2z2 |
[V:2]_G4 z4 A,2z2 |
[V:3]z12 |
[V:4]B,,4 z4 B,,4 |
[V:1]E4 D4 E4 |
[V:2]B,4 _C4 B,4 |
[V:3]G,4 A,4 G,4 |
[V:4]E,,12 |
[V:1]F12 |
[V:2]_C12 |
[V:3]A,12 |
[V:4]D,,4 ^C,,4 D,,4 |
[V:1]E4 D4 E4 |
[V:2]B,4 _C4 B,4 |
[V:3]G,4 A,4 G,4 |
[V:4]E,,12 |
[V:1]F12 |
[V:2](3_CA,B,(3CA,B, (3CA,B,(3CA,B, (3CA,B,(3CA,B, |
[V:3]A,12 |
[V:4]D,,4 ^C,,4 D,,4 |
[V:1]E4 [E4G,4] [E4G,4] |
[V:2]B,4 B,4 B,4 |
[V:3]G,4 E,4 E,4 |
[V:4](3E,,D,,E,,(3G,,B,,G,, (3E,,D,,E,,(3G,,B,,G,, (3E,,D,,E,,(3G,,B,,G,, |
[V:1][G,12E12] |]
[V:2]B,12 |]
[V:3]E,12 |]
[V:4]E,,12 |]

